!!!COM: Claude Debussy
!!!CNT: Francais
!!!TXO: Francais
!!!OTL: la flu^te de Pan
!!!LYR: Pierre Louy2s
!!!OPR: Trois Chansons de Bilitis
!!!ONM: No. 1
!!!ENC: Jacob Pegg
!!!YOR: Claude Debussy: Songs 1880-1904, Edited by Rita Benton
!!!YOR: New York: Dover publications, inc., 1981
!!!YOR: ISBN 0-486-24131-9
!!!ODT: 1898/
!!NB: Vocal melody and text only encoded.
!!NB: First instance of melodic material only encoded.
**kern	**silbe
*clef G2	*
*k[f#c#g#d#a#]	*
*M4/4	*
*MM[lento]	*
!!created: 7/23/03 15:39
!!last edited: 7/23/03 23:54
!!time in: notes ~27, words ~14; check notes 8, words 5.
!!total time: 55 min.
=1	=1
1r	.
=2	=2
*M3/4	*
2.r	.
=3	=3
*M4/4	*
*k[f#c#g#d#]	*
4r	.
{8d#	{Pour
8d#	le
(12f#	jour
12f#	des
12e#)	Hy-
(12d#	-a-
12e#	|
12f#)	-cyn-
=4	=4
[8g#	-thies,
16g#]}	|}
16r	.
4r	.
16r	.
{16g#	{il
16g#	m'a
16g#	don-
16b	-ne/
16b	u-
16b	-ne
16b	sy-
=5	=5
*M3/4	*
*k[f#c#g#d#a#]	*
8g#	-rinx
16g#	fai-
16g#	-te
16g#	de
16g#	ro-
(24g#	-seaux
24g#	bien
24g#)	tail-
8b;}	-le/s,}
{(24b	{u-
24a#	-nis
24g#)	a-
=6	=6
*M4/4	*
16g#	-vec
16g#	la
(24b	blan-
24a#)	|
24g#	-che
!!
16g#	ci-
16g#	-re
(24b	qui
24a#)	|
24g#	est
!!
24g#	dou-
24g#	-ce
24g#	a\
(24b	mes
24a#)	le\-
24g#	-vres
!!
24g#	com-
24e	-me
24e	le
8e;}	miel.}
=7	=7
12r	.
{12e	{Il
12e	-m'ap-
!!
12f#	-prend
12f#	a\
12f#	jou-
!!
8e	-er,
8e	as-
!!	
16d#	-si-
16d#	-se
24d#	sur
24d#	ses
24f#	ge-
=8	=8
*M3/4	*
4c#}	-noux;}
8r	.
{16e	{mais
16e	je
16B	suis
16B	un
16c#	peu
16c#	trem-
=9	=9
8f#	-blan-
8c#}	-te.}
12r	.
{12e	{Il
12e	en
12f#	joue
12f#	a-
12f#	-pre\s
=10	=10
16b	moi,
16b	si
16a#	dou-
16a#	-ce-
12f#	-ment
12f#	que
12f#	je
12dn	l'en-
12dn	-tends
12dn	a\
=11	=11
4dn	pei-
8B}	-ne.}
8r	.
4r	.
=12	=12
*M4/4	*
2r	.
4r	.
16r	.
{16g#	{Nous
16g#	n'a-
16g#	-vons
=13	=13
*M3/4	*
12a#	rien
12g#	a\
12f#	nous
8d#	di-
16d#}	-re,}
16r	.
{16dn	{tant
16dn	nous
16d#	som-
16d#	-mes
=14	=14
12a#	pre\s
12g#	l'un
12f#	de
8d#	l'au
16d#}	-tre;}
16r	.
16r	.
{16dn	{mais
16d#	nos
16d#	chan-
=15	=15
8f#	-sons
16f#	veu-
16f#	-lent
16fn	se
16fn	re/-
16a-	-pon-
16a-}	-dre,}
16r	.
{16a-	{et
16a-	tour
16gn	a\
=16	=16
8f#	tour
8f#	nos
12fn	bou-
12fn	-ches
12fn	s'u-
16fn	-nis-
16gn	-sent
16a-	sur
16an	la
=17	=17
*M4/4	*
(4a#	flu^-
8f#)}	-te.}
8r	.
2r	.
=18	=18
*M3/4	*
4r	.
4r	.
12r	.
{12e	{Il
12e	est
=19	=19
4e}	tard;}
4r	.
4r	.
=20	=20
16r	.
{16e	{voi-
16e	-ci
16e	le
16gn	chant
16gn	des
24gn	gre-
24gn	-nouil-
24gn	-les
16a#	ver-
16a#	-tes
16a#	qui
16a#	com-
=21	=21
16b	-mence
16gn	a-
16gn	-vec
16gn	la
4dn}	nuit.}
4r	.
=22	=22
*k[]	*
*MM52	*
4r	.
2r	.
=23	=23
2r	.
4r	.
=24	=24
4r	.
2r	.
=25	=25
12r	.
12r	.
{12e	{Ma
12e	me\-
12e	-re
12e	ne
12e	croi-
12e	-ra
12e	ja-
=26	=26
*M4/4	*
8e	-mais
16e	que
16e	je
16e	suis
16e	res-
24e	-te/e
24e	si
24e	long-
12e	-temps
12e	a\
12e	cher-
24a	-cher
24e	ma
24e	cein-
24e	-tu-
24e	-re
24g	per-
=27	=27
*k[f#c#g#d#a#]	*
[4d#	-du-
8d#]}	-e.}
8r	.
2r	.
*-	*-
